src/components/Icon/utils/svgsOptimized/filter.svg

<?xml version="1.0" encoding="utf-8"?><svg width="24" height="24" xmlns="http://www.w3.org/2000/svg" viewBox="0 0 24 24"><path d="M18.75 7h-14c-.41 0-.75.34-.75.75s.34.75.75.75h14c.41 0 .75-.34.75-.75S19.16 7 18.75 7Zm-3 3.99h-8c-.41 0-.75.34-.75.75s.34.75.75.75h8c.41 0 .75-.34.75-.75s-.34-.75-.75-.75Zm-5 3.99h2c.41 0 .75.34.75.75s-.34.75-.75.75h-2c-.41 0-.75-.34-.75-.75s.34-.75.75-.75Z"/></svg>

<svg width="24" height="24" viewBox="0 0 24 24"  xmlns="http://www.w3.org/2000/svg">
<path d="M18.75 7H4.75C4.34 7 4 7.34 4 7.75C4 8.16 4.34 8.5 4.75 8.5H18.75C19.16 8.5 19.5 8.16 19.5 7.75C19.5 7.34 19.16 7 18.75 7Z" />
<path d="M15.75 10.99H7.75C7.34 10.99 7 11.33 7 11.74C7 12.15 7.34 12.49 7.75 12.49H15.75C16.16 12.49 16.5 12.15 16.5 11.74C16.5 11.33 16.16 10.99 15.75 10.99Z" />
<path d="M10.75 14.98H12.75C13.16 14.98 13.5 15.32 13.5 15.73C13.5 16.14 13.16 16.48 12.75 16.48H10.75C10.34 16.48 10 16.14 10 15.73C10 15.32 10.34 14.98 10.75 14.98Z" />
</svg>
